styles/5/Numix-Circle/48x48/apps/file-manager-red.svg

<?xml version="1.0" encoding="UTF-8" standalone="no"?>
<svg
   xmlns:dc="http://purl.org/dc/elements/1.1/"
   xmlns:cc="http://creativecommons.org/ns#"
   xmlns:rdf="http://www.w3.org/1999/02/22-rdf-syntax-ns#"
   xmlns:svg="http://www.w3.org/2000/svg"
   xmlns="http://www.w3.org/2000/svg"
   xmlns:xlink="http://www.w3.org/1999/xlink"
   xmlns:sodipodi="http://sodipodi.sourceforge.net/DTD/sodipodi-0.dtd"
   xmlns:inkscape="http://www.inkscape.org/namespaces/inkscape"
   width="48"
   viewBox="0 0 13.546667 13.546667"
   height="48"
   id="svg2"
   version="1.1"
   inkscape:version="0.91 r"
   sodipodi:docname="file-manager-red.svg">
  <metadata
     id="metadata331">
    <rdf:RDF>
      <cc:Work
         rdf:about="">
        <dc:format>image/svg+xml</dc:format>
        <dc:type
           rdf:resource="http://purl.org/dc/dcmitype/StillImage" />
        <dc:title />
      </cc:Work>
    </rdf:RDF>
  </metadata>
  <sodipodi:namedview
     pagecolor="#ffffff"
     bordercolor="#666666"
     borderopacity="1"
     objecttolerance="10"
     gridtolerance="10"
     guidetolerance="10"
     inkscape:pageopacity="0"
     inkscape:pageshadow="2"
     inkscape:window-width="1280"
     inkscape:window-height="998"
     id="namedview329"
     showgrid="true"
     inkscape:zoom="17.138526"
     inkscape:cx="30.143876"
     inkscape:cy="24.950561"
     inkscape:window-x="0"
     inkscape:window-y="0"
     inkscape:window-maximized="1"
     inkscape:current-layer="layer3"
     showguides="true"
     inkscape:guide-bbox="true">
    <inkscape:grid
       type="xygrid"
       id="grid3308"
       empspacing="5"
       visible="true"
       enabled="true"
       snapvisiblegridlinesonly="true" />
  </sodipodi:namedview>
  <defs
     id="defs4">
    <linearGradient
       id="linearGradient4140">
      <stop
         style="stop-color:#da4b26;stop-opacity:1;"
         offset="0"
         id="stop4143" />
      <stop
         style="stop-color:#ea6542;stop-opacity:1;"
         offset="1"
         id="stop4145" />
    </linearGradient>
    <linearGradient
       inkscape:collect="always"
       xlink:href="#linearGradient4140"
       id="linearGradient4147"
       x1="-27"
       y1="13"
       x2="-24"
       y2="13"
       gradientUnits="userSpaceOnUse" />
  </defs>
  <g
     inkscape:groupmode="layer"
     id="layer1"
     inkscape:label="Shadow"
     sodipodi:insensitive="true">
    <path
       style="opacity:0.05;fill:#000000;fill-opacity:1;stroke:none"
       d="M 25,2 C 12.297451,2 2,12.297451 2,25 2,31.367153 4.6007106,37.116628 8.78125,41.28125 12.865755,44.99361 18.29568,47.25 24.25,47.25 c 12.702549,0 23,-10.297451 23,-23 0,-5.95432 -2.25639,-11.384245 -5.96875,-15.46875 C 37.116628,4.6007105 31.367153,2 25,2 z M 41.28125,8.78125 C 45.135604,12.894061 47.5,18.418655 47.5,24.5 c 0,12.702549 -10.297451,23 -23,23 C 18.418655,47.5 12.894061,45.135604 8.78125,41.28125 12.940939,45.4251 18.664604,48 25,48 37.702549,48 48,37.702549 48,25 48,18.664604 45.4251,12.940939 41.28125,8.78125 z"
       transform="scale(0.28222223,0.28222223)"
       id="path3978"
       inkscape:connector-curvature="0" />
    <path
       style="opacity:0.1;fill:#000000;fill-opacity:1;stroke:none"
       d="M 41.28125,8.78125 C 44.99361,12.865755 47.25,18.29568 47.25,24.25 c 0,12.702549 -10.297451,23 -23,23 -5.95432,0 -11.384245,-2.25639 -15.46875,-5.96875 C 12.894061,45.135604 18.418655,47.5 24.5,47.5 c 12.702549,0 23,-10.297451 23,-23 0,-6.081345 -2.364396,-11.605939 -6.21875,-15.71875 z"
       transform="scale(0.28222223,0.28222223)"
       id="path3976"
       inkscape:connector-curvature="0" />
    <path
       transform="matrix(4.3274074,0,0,3.2455556,117.19278,-35.348334)"
       d="m -24,13 a 1.5,2 0 1 1 -3,0 1.5,2 0 1 1 3,0 z"
       sodipodi:ry="2"
       sodipodi:rx="1.5"
       sodipodi:cy="13"
       sodipodi:cx="-25.5"
       id="path3952"
       style="opacity:0.2;fill:#000000;fill-opacity:1;stroke:none"
       sodipodi:type="arc" />
  </g>
  <g
     inkscape:groupmode="layer"
     id="layer2"
     inkscape:label="Base">
    <path
       sodipodi:type="arc"
       style="fill:url(#linearGradient4147);fill-opacity:1;stroke:none"
       id="path3942"
       sodipodi:cx="-25.5"
       sodipodi:cy="13"
       sodipodi:rx="1.5"
       sodipodi:ry="2"
       d="m -24,13 a 1.5,2 0 1 1 -3,0 1.5,2 0 1 1 3,0 z"
       transform="matrix(0,-4.3274075,3.2455556,0,-35.429918,-103.60974)" />
    <path
       style="opacity:0.1;fill:#000000;fill-opacity:1;stroke:none"
       d="M 40.03125 7.53125 C 43.74361 11.615755 46 17.04568 46 23 C 46 35.702549 35.702549 46 23 46 C 17.04568 46 11.615755 43.74361 7.53125 40.03125 C 11.709416 44.322508 17.537578 47 24 47 C 36.702549 47 47 36.702549 47 24 C 47 17.537578 44.322508 11.709416 40.03125 7.53125 z "
       transform="scale(0.28222223,0.28222223)"
       id="path4027" />
  </g>
  <g
     inkscape:groupmode="layer"
     id="layer3"
     inkscape:label="Symbol">
    <rect
       style="fill:#fffdf0;fill-opacity:1;stroke:none"
       id="rect3799"
       width="3.104444"
       height="1.1288817"
       x="3.9511118"
       y="5.0799999" />
    <path
       style="fill:none;stroke:none"
       d="m 6.773334,4.9388886 -0.7055557,0.4233334 0.4233335,0 z"
       id="path3801"
       inkscape:connector-curvature="0" />
    <path
       style="fill:#000000;fill-opacity:0.10196078;stroke:none"
       d="m 7.9375001,4.2333327 c -0.5373542,0 -0.7117802,0.4237228 -0.9877778,0.8466667 l -2.5752777,0 c -0.3908777,0 -0.7055555,0.3146779 -0.7055555,0.7055556 l 0,0.2822222 0,2.3988891 0,0.4233334 0,0.2469445 0,0.035278 c 0.00181,0.039136 0.010132,0.077356 0.017639,0.1146529 0.03366,0.1950379 0.1448299,0.3615219 0.3086805,0.4674306 0.078311,0.050618 0.1685569,0.087097 0.2645834,0.1058333 0.048013,0.00989 0.090127,0.017639 0.141111,0.017639 l 5.3093059,0 c 0.050984,0 0.093098,-0.00775 0.1411111,-0.017639 0.096026,-0.018737 0.186272,-0.055215 0.264583,-0.1058333 0.16385,-0.1059087 0.275021,-0.2723927 0.308681,-0.4674306 0.0075,-0.037297 0.01583,-0.075516 0.01764,-0.1146529 l 0,-0.035278 0,-0.2469445 0,-3.9158336 c 0,-0.4125933 -0.324141,-0.7408333 -0.7320132,-0.7408333 l -1.7727084,0 z"
       id="rect3375"
       inkscape:connector-curvature="0" />
    <path
       inkscape:connector-curvature="0"
       style="fill:#f57c00;fill-opacity:1;stroke:none"
       d="m 4.0922225,4.5155557 c -0.3908778,0 -0.7055556,0.3146778 -0.7055556,0.7055556 l 0,2.6811111 6.4911112,0 0,-2.6811111 c 0,-0.3908778 -0.3146778,-0.7055556 -0.7055556,-0.7055556 l -5.0800001,0 z"
       id="rect2987-2" />
    <path
       style="opacity:0.2;fill:#ffffff;fill-opacity:1;stroke:none"
       d="m 4.0922223,4.5155557 c -0.3908777,0 -0.7055555,0.3146778 -0.7055555,0.7055556 l 0,0.2822223 c 0,-0.3908778 0.3146778,-0.7055557 0.7055555,-0.7055557 l 5.0800005,0 c 0.3908775,0 0.7055553,0.3146779 0.7055553,0.7055557 l 0,-0.2822223 c 0,-0.3908778 -0.3146778,-0.7055556 -0.7055553,-0.7055556 l -5.0800005,0 z"
       id="rect3797"
       inkscape:connector-curvature="0" />
    <path
       style="fill:#ffb300;fill-opacity:1;stroke:none"
       d="m 4.1228987,5.6444443 1.1779711,0 C 6.9205807,5.4954937 6.6260874,3.9511109 7.6568122,3.9511109 l 1.7669567,0 c 0.4078722,0 0.7362311,0.33216 0.7362311,0.7447534 l 0,4.1549387 c 0,0.4125925 -0.3283589,0.7447526 -0.7362311,0.7447526 l -5.3008702,0 c -0.4078724,0 -0.7362318,-0.3321601 -0.7362318,-0.7447526 l 0,-2.3675307 c 0,-0.4468519 0.2944927,-0.838828 0.7362318,-0.838828 z"
       id="rect3776"
       inkscape:connector-curvature="0"
       sodipodi:nodetypes="cccsssssscc" />
    <path
       style="opacity:0.15;fill:#000000;fill-opacity:1;stroke:none"
       d="m 3.3866668,8.6077775 0,0.282223 c 0,0.3908773 0.3283595,0.7055551 0.7362319,0.7055551 l 5.3008702,0 C 9.8316411,9.5955556 10.16,9.2808778 10.16,8.8900005 l 0,-0.282223 c 0,0.3908781 -0.3283589,0.705556 -0.7362311,0.705556 l -5.3008702,0 c -0.4078724,0 -0.7362319,-0.3146779 -0.7362319,-0.705556 z"
       id="path3786"
       inkscape:connector-curvature="0"
       sodipodi:nodetypes="csssscssc" />
  </g>
</svg>

<svg xmlns="http://www.w3.org/2000/svg" viewBox="0 0 48 48">
 <defs>
  <linearGradient id="linearGradient3764" x1="1" x2="47" gradientUnits="userSpaceOnUse" gradientTransform="matrix(0,-1,1,0,-1.5e-6,47.999998)">
   <stop style="stop-color:#db522f;stop-opacity:1"/>
   <stop offset="1" style="stop-color:#df6445;stop-opacity:1"/>
  </linearGradient>
 </defs>
 <g>
  <path d="m 36.31 5 c 5.859 4.062 9.688 10.831 9.688 18.5 c 0 12.426 -10.07 22.5 -22.5 22.5 c -7.669 0 -14.438 -3.828 -18.5 -9.688 c 1.037 1.822 2.306 3.499 3.781 4.969 c 4.085 3.712 9.514 5.969 15.469 5.969 c 12.703 0 23 -10.298 23 -23 c 0 -5.954 -2.256 -11.384 -5.969 -15.469 c -1.469 -1.475 -3.147 -2.744 -4.969 -3.781 z m 4.969 3.781 c 3.854 4.113 6.219 9.637 6.219 15.719 c 0 12.703 -10.297 23 -23 23 c -6.081 0 -11.606 -2.364 -15.719 -6.219 c 4.16 4.144 9.883 6.719 16.219 6.719 c 12.703 0 23 -10.298 23 -23 c 0 -6.335 -2.575 -12.06 -6.719 -16.219 z" style="opacity:0.05"/>
  <path d="m 41.28 8.781 c 3.712 4.085 5.969 9.514 5.969 15.469 c 0 12.703 -10.297 23 -23 23 c -5.954 0 -11.384 -2.256 -15.469 -5.969 c 4.113 3.854 9.637 6.219 15.719 6.219 c 12.703 0 23 -10.298 23 -23 c 0 -6.081 -2.364 -11.606 -6.219 -15.719 z" style="opacity:0.1"/>
  <path d="m 31.25 2.375 c 8.615 3.154 14.75 11.417 14.75 21.13 c 0 12.426 -10.07 22.5 -22.5 22.5 c -9.708 0 -17.971 -6.135 -21.12 -14.75 a 23 23 0 0 0 44.875 -7 a 23 23 0 0 0 -16 -21.875 z" style="opacity:0.2"/>
 </g>
 <g>
  <path d="m 24 1 c 12.703 0 23 10.297 23 23 c 0 12.703 -10.297 23 -23 23 -12.703 0 -23 -10.297 -23 -23 0 -12.703 10.297 -23 23 -23 z" style="fill:url(#linearGradient3764);fill-opacity:1"/>
 </g>
 <g>
  <path d="m 40.03 7.531 c 3.712 4.084 5.969 9.514 5.969 15.469 0 12.703 -10.297 23 -23 23 c -5.954 0 -11.384 -2.256 -15.469 -5.969 4.178 4.291 10.01 6.969 16.469 6.969 c 12.703 0 23 -10.298 23 -23 0 -6.462 -2.677 -12.291 -6.969 -16.469 z" style="opacity:0.1"/>
 </g>
 <g transform="matrix(3.543307,0,0,3.543307,0.0023625,-7.86546e-4)">
  <rect width="3.104" height="1.129" x="3.951" y="5.08" style="fill:#fffdf0;fill-opacity:1;stroke:none"/>
  <path d="M 7.938,4.233 C 7.401,4.233 7.226,4.657 6.95,5.08 l -2.575,0 c -0.391,0 -0.706,0.315 -0.706,0.706 0,1.117 0,2.234 0,3.351 l 0,0.035 C 3.671,9.211 3.67,9.249 3.687,9.287 3.721,9.482 3.832,9.649 3.996,9.754 4.074,9.805 4.165,9.841 4.261,9.86 4.309,9.861 4.351,9.878 4.402,9.878 l 5.309,0 C 9.762,9.878 9.804,9.87 9.852,9.86 9.948,9.841 10.038,9.805 10.117,9.754 10.281,9.648 10.392,9.482 10.426,9.287 10.434,9.25 10.442,9.211 10.444,9.172 l 0,-0.035 0,-4.163 c 0,-0.413 -0.324,-0.741 -0.732,-0.741 l -1.773,0 z" style="fill:#000;fill-opacity:0.102;stroke:none"/>
  <path d="m 4.092,4.516 c -0.391,0 -0.706,0.315 -0.706,0.706 l 0,2.681 6.491,0 0,-2.681 C 9.877,4.831 9.562,4.516 9.171,4.516 l -5.08,0 z" style="fill:#f57c00;fill-opacity:1;stroke:none"/>
  <path d="m 4.092,4.516 c -0.391,0 -0.706,0.315 -0.706,0.706 l 0,0.282 c 0,-0.391 0.315,-0.706 0.706,-0.706 l 5.08,0 c 0.391,0 0.706,0.315 0.706,0.706 l 0,-0.282 C 9.878,4.831 9.563,4.516 9.172,4.516 l -5.08,0 z" style="fill:#fff;opacity:0.2;fill-opacity:1;stroke:none"/>
  <path d="m 4.123,5.644 1.178,0 C 6.921,5.495 6.626,3.951 7.657,3.951 l 1.767,0 c 0.408,0 0.736,0.332 0.736,0.745 l 0,4.155 c 0,0.413 -0.328,0.745 -0.736,0.745 l -5.301,0 C 3.715,9.596 3.387,9.264 3.387,8.851 l 0,-2.368 c 0,-0.447 0.294,-0.839 0.736,-0.839 z" style="fill:#ffb300;fill-opacity:1;stroke:none"/>
  <path d="m 3.387 8.608 0 0.282 c 0 0.391 0.328 0.706 0.736 0.706 l 5.301 0 c 0.408 0 0.736 -0.315 0.736 -0.706 l 0 -0.282 c 0 0.391 -0.328 0.706 -0.736 0.706 l -5.301 0 c -0.408 0 -0.736 -0.315 -0.736 -0.706" style="fill:#000;opacity:0.15;fill-opacity:1;stroke:none"/>
 </g>
</svg>
